!!!OTL: 704. Teut's Soehne.
!!!ODT: 1817
!!!ARE: Europa, Mitteleuropa, Deutschland
!!!SCT: B0704
!!!TXL: @@DE
!!!YEM: Copyright 1995, estate of Helmut Schaffrath.
**kern	**text
*ICvox	*
*Ivox	*
*clefG2	*
*M3/4	*
*k[f#]	*
*G:	*
!LO:TX:a:t=Mäßig.	!
{4d	Auf,
=1	=1
4g	ſin-
4g	-get
4d	und
=2	=2
4a	trin-
4a}	-ket
{4d	den
=3	=3
4a	köſt-
4a	-lie-
4dd	-chen
=4	=4
4b	Trank!
4r}	.
{4b	Auf
=5	=5
4a	ſin-
4.dd	-get
8b	und
=6	=6
4a	bringet
4dd}	.
{4b	der
=7	=7
8aL	Freud'
8bJ	.
8aL	eu-
8gJ	.
8f#L	-ren
8eJ	.
=8	=8
4d	Dank!
4r}	.
{4d	Trinkt,
=9	=9
4g	vor-
4.g	-neh-
8fn	-me
=10	=10
4e	Sün-
4e}	-der,
{4e	aus
=11	=11
4a	Gold
4.a	eu-
8g	-ren
=12	=12
(4g	Wein!
8f#)	.
8r}	.
{4d	Wir
=13	=13
4g	freun
4.b	uns
8g	nicht
=14	=14
8f#L	min-
8aJ	.
4dd}	-der
{4ee	beim
=15	=15
4b	Bier-
4b	-krug
4a	von
=16	=16
4g	Stein.
4r}	.
!LO:TX:a:t=Alle.	!
{8dd	Ju-
8cc	-vi-
=17	=17
8.b	-val-
16a	-le-
8.b	-ral-
16a	-le-
8.b	-ral-
16cc	-le-
=18	=18
2dd}	-ra!
{8eeL	beim
8ccJ	.
=19	=19
4a	Bier-
4b	-krug
4a	von
=20	=20
2g}	Stein.
==	==
!!!AGN: Scherz -, Trink -  Lied, historisch
!!!GTL: Scherzlieder und Gemischtes
!!!ONB: ESAC (Essen Associative Code) Database: BOEHME
!!!AMT: simple triple
!!!AIN: vox
!!!EED: Helmut Schaffrath
!!!EEV: 1.0
!!Mel. 1817. Komponist unbekannt.
!!@@COMMENT:"Text im Roſtocker Liederbuch 1808 (daher Weinkauff, Alemannia J, 5 und hier). Hoffmann
!!nennt als älteſte Quelle: Lieder im geſell. Kreiſe ʒu ſingen. Greifswalde 1808. S. 13. - Mel.
!!wohl ʒuerſt in "Deutſche Burſchenlieder" mit 4ſtimm. geſetʒter Weiſe, Jena 1817, Nr. 10. Daher Friedländer, Kommersb. Nr. 12."
!!@@END:
!!!URL-scan: https://archive.org/details/BoehmeVtLieder1895/page/n553/mode/2up
!!!ENC: Anna Maria Matuszewska
!!!EEV: 2024/17/07
*-	*-
